X: 357
M: 3/4
L: 1/8
K: Am
c2 |\
|: gg |\
g2f2e2 | f4ff | f2e2d2 | e4ee |
e2d2^c2 | (de)(fe)(dc) | (Bc)(dc)(BA) | ^G2E2dd |\
d2c2B2 | c4ee | e2d2^c2 | d4ee |\
f2e2d2 | e2(AB)(cd) | e2E2^G2 | A4 :|

